app/assets/images/heroicons/micro/face-smile.svg

<svg width="16" height="16" viewBox="0 0 16 16" fill="none" xmlns="http://www.w3.org/2000/svg">
<path fill-rule="evenodd" clip-rule="evenodd" d="M15 8C15 11.866 11.866 15 8 15C4.13401 15 1 11.866 1 8C1 4.13401 4.13401 1 8 1C11.866 1 15 4.13401 15 8ZM6 8C6.55228 8 7 7.32843 7 6.5C7 5.67157 6.55228 5 6 5C5.44772 5 5 5.67157 5 6.5C5 7.32843 5.44772 8 6 8ZM11 6.5C11 7.32843 10.5523 8 10 8C9.44771 8 9 7.32843 9 6.5C9 5.67157 9.44771 5 10 5C10.5523 5 11 5.67157 11 6.5ZM11.0052 10.7447C10.7123 10.4518 10.2374 10.4518 9.94454 10.7447C8.8706 11.8186 7.1294 11.8186 6.05546 10.7447C5.76256 10.4518 5.28769 10.4518 4.9948 10.7447C4.7019 11.0376 4.7019 11.5125 4.9948 11.8053C6.65452 13.4651 9.34548 13.4651 11.0052 11.8053C11.2981 11.5124 11.2981 11.0376 11.0052 10.7447Z" fill="black"/>
</svg>

<svg xmlns="http://www.w3.org/2000/svg" viewBox="0 0 16 16" fill="currentColor" aria-hidden="true" data-slot="icon">
  <path fill-rule="evenodd" d="M15 8A7 7 0 1 1 1 8a7 7 0 0 1 14 0ZM6 8c.552 0 1-.672 1-1.5S6.552 5 6 5s-1 .672-1 1.5S5.448 8 6 8Zm5-1.5c0 .828-.448 1.5-1 1.5s-1-.672-1-1.5S9.448 5 10 5s1 .672 1 1.5Zm.005 4.245a.75.75 0 0 0-1.06 0 2.75 2.75 0 0 1-3.89 0 .75.75 0 0 0-1.06 1.06 4.25 4.25 0 0 0 6.01 0 .75.75 0 0 0 0-1.06Z" clip-rule="evenodd"/>
</svg>
